icons/circle/48/fluxgui.svg

<svg xmlns="http://www.w3.org/2000/svg" viewBox="0 0 48 48">
 <defs>
  <linearGradient id="linearGradient3070" gradientUnits="userSpaceOnUse" gradientTransform="matrix(0,-1,1,0,-1.5e-6,47.999998)" x1="1" x2="47">
   <stop style="stop-color:#ffc867;stop-opacity:1"/>
   <stop offset="1" style="stop-color:#ffce7b;stop-opacity:1"/>
  </linearGradient>
 </defs>
 <g>
  <path d="m 36.31 5 c 5.859 4.062 9.688 10.831 9.688 18.5 c 0 12.426 -10.07 22.5 -22.5 22.5 c -7.669 0 -14.438 -3.828 -18.5 -9.688 c 1.037 1.822 2.306 3.499 3.781 4.969 c 4.085 3.712 9.514 5.969 15.469 5.969 c 12.703 0 23 -10.298 23 -23 c 0 -5.954 -2.256 -11.384 -5.969 -15.469 c -1.469 -1.475 -3.147 -2.744 -4.969 -3.781 z m 4.969 3.781 c 3.854 4.113 6.219 9.637 6.219 15.719 c 0 12.703 -10.297 23 -23 23 c -6.081 0 -11.606 -2.364 -15.719 -6.219 c 4.16 4.144 9.883 6.719 16.219 6.719 c 12.703 0 23 -10.298 23 -23 c 0 -6.335 -2.575 -12.06 -6.719 -16.219 z" style="opacity:0.05"/>
  <path d="m 41.28 8.781 c 3.712 4.085 5.969 9.514 5.969 15.469 c 0 12.703 -10.297 23 -23 23 c -5.954 0 -11.384 -2.256 -15.469 -5.969 c 4.113 3.854 9.637 6.219 15.719 6.219 c 12.703 0 23 -10.298 23 -23 c 0 -6.081 -2.364 -11.606 -6.219 -15.719 z" style="opacity:0.1"/>
  <path d="m 31.25 2.375 c 8.615 3.154 14.75 11.417 14.75 21.13 c 0 12.426 -10.07 22.5 -22.5 22.5 c -9.708 0 -17.971 -6.135 -21.12 -14.75 a 23 23 0 0 0 44.875 -7 a 23 23 0 0 0 -16 -21.875 z" style="opacity:0.2"/>
 </g>
 <path d="m 24 1 c -12.703 0 -23 10.297 -23 23 c 0 1.346 0.122 2.655 0.344 3.938 13.721 -2.219 17.361 -3.176 23.516 -3.246 6.101 -0.07 6.241 5.295 20.234 8.465 c 1.222 -2.809 1.906 -5.897 1.906 -9.156 0 -12.703 -10.297 -23 -23 -23 z m -22.656 26.938 c -0.896 13.375 -0.448 6.688 0 0 z" style="fill:url(#linearGradient3070);fill-opacity:1"/>
 <path d="m 39.996 25 c 0 3.313 -2.684 6 -6 6 -3.313 0 -6 -2.688 -6 -6 0 -3.313 2.688 -6 6 -6 3.316 0 6 2.688 6 6 m 0 0" style="fill:#000;opacity:0.1;fill-opacity:1;stroke:none;fill-rule:nonzero"/>
 <path d="m 38.996 24 c 0 3.313 -2.684 6 -6 6 -3.313 0 -6 -2.688 -6 -6 0 -3.313 2.688 -6 6 -6 3.316 0 6 2.688 6 6 m 0 0" style="fill:#ff9c2f;fill-opacity:1;stroke:none;fill-rule:nonzero"/>
 <path d="m 17.813 16.781 c -6.155 0.07 -12.24 5.05 -16.469 11.156 c 1.872 10.822 11.299 19.06 22.656 19.06 c 9.444 0 17.552 -5.704 21.09 -13.844 c -8.528 -7.916 -21.18 -16.445 -27.28 -16.375 z" style="fill:#869cc8;fill-opacity:1;stroke:none;fill-rule:nonzero"/>
 <g>
  <path d="m 40.03 7.531 c 3.712 4.084 5.969 9.514 5.969 15.469 0 12.703 -10.297 23 -23 23 c -5.954 0 -11.384 -2.256 -15.469 -5.969 4.178 4.291 10.01 6.969 16.469 6.969 c 12.703 0 23 -10.298 23 -23 0 -6.462 -2.677 -12.291 -6.969 -16.469 z" style="opacity:0.1"/>
 </g>
</svg>

<svg xmlns="http://www.w3.org/2000/svg" viewBox="0 0 48 48">
  <defs>
    <linearGradient id="a" gradientUnits="userSpaceOnUse" gradientTransform="rotate(-90 24 24)" x1="1" x2="47">
      <stop stop-color="#ffc867"/>
      <stop offset="1" stop-color="#ffce7b"/>
    </linearGradient>
  </defs>
  <path d="M36.31 5c5.859 4.062 9.688 10.831 9.688 18.5 0 12.426-10.07 22.5-22.5 22.5-7.669 0-14.438-3.828-18.5-9.688a23.24 23.24 0 0 0 3.781 4.969 22.923 22.923 0 0 0 15.469 5.969c12.703 0 23-10.298 23-23a22.92 22.92 0 0 0-5.969-15.469A23.216 23.216 0 0 0 36.31 5zm4.969 3.781A22.911 22.911 0 0 1 47.498 24.5c0 12.703-10.297 23-23 23a22.909 22.909 0 0 1-15.719-6.219C12.939 45.425 18.662 48 24.998 48c12.703 0 23-10.298 23-23 0-6.335-2.575-12.06-6.719-16.219z" opacity=".05"/>
  <path d="M41.28 8.781a22.923 22.923 0 0 1 5.969 15.469c0 12.703-10.297 23-23 23A22.92 22.92 0 0 1 8.78 41.281 22.911 22.911 0 0 0 24.499 47.5c12.703 0 23-10.298 23-23A22.909 22.909 0 0 0 41.28 8.781z" opacity=".1"/>
  <path d="M31.25 2.375C39.865 5.529 46 13.792 46 23.505c0 12.426-10.07 22.5-22.5 22.5-9.708 0-17.971-6.135-21.12-14.75a23 23 0 0 0 44.875-7 23 23 0 0 0-16-21.875z" opacity=".2"/>
  <path d="M24 1C11.297 1 1 11.297 1 24c0 1.346.122 2.655.344 3.938 13.721-2.219 17.361-3.176 23.516-3.246 6.101-.07 6.241 5.295 20.234 8.465A22.871 22.871 0 0 0 47 24.001c0-12.703-10.297-23-23-23zM1.344 27.938c-.896 13.375-.448 6.688 0 0z" fill="url(#a)"/>
  <path d="M39.996 25c0 3.313-2.684 6-6 6-3.313 0-6-2.688-6-6a6 6 0 1 1 12 0m0 0" opacity=".1"/>
  <path d="M38.996 24c0 3.313-2.684 6-6 6-3.313 0-6-2.688-6-6a6 6 0 1 1 12 0m0 0" fill="#ff9c2f"/>
  <path d="M17.813 16.781c-6.155.07-12.24 5.05-16.469 11.156C3.216 38.759 12.643 46.997 24 46.997c9.444 0 17.552-5.704 21.09-13.844-8.528-7.916-21.18-16.445-27.28-16.375z" fill="#869cc8"/>
  <g>
    <path d="M40.03 7.531A22.922 22.922 0 0 1 45.999 23c0 12.703-10.297 23-23 23A22.92 22.92 0 0 1 7.53 40.031C11.708 44.322 17.54 47 23.999 47c12.703 0 23-10.298 23-23 0-6.462-2.677-12.291-6.969-16.469z" opacity=".1"/>
  </g>
</svg>
